public/assets/img/Vector12.svg

<svg width="500" height="500" viewBox="0 0 72 89" fill="none" xmlns="http://www.w3.org/2000/svg">
<rect y="0.000457764" width="71.2" height="89" rx="4" fill="#DFE2E2"/>
<mask id="mask0_407_2295" style="mask-type:alpha" maskUnits="userSpaceOnUse" x="0" y="0" width="72" height="90">
<rect y="0.000457764" width="71.2" height="89" rx="4" fill="#44B090"/>
</mask>
<g mask="url(#mask0_407_2295)">
<path d="M27.3653 60.2224C14.5861 59.9561 10.5039 55.0086 10.0602 52.5681C9.79915 51.7362 9.22817 46.9107 13.5545 42.9172C17.8808 38.9237 19.5447 32.6006 19.7111 30.4375C19.8775 28.2743 22.8726 23.1161 28.6965 22.1177C34.5203 21.1193 46.8336 21.2857 48.8304 29.4391C50.8271 37.5925 52.4911 37.9253 55.3198 41.586C58.1486 45.2467 59.8125 49.573 59.4797 52.5681C59.1469 55.5633 55.6526 57.8928 51.8255 59.224C47.9984 60.5551 43.3393 60.5551 27.3653 60.2224Z" fill="#E62129" stroke="#D3141C"/>
<path d="M23.9959 44.3047C22.9974 47.4608 21.777 49.2187 21.2916 49.7032C20.9448 50.949 21.1667 55.3094 24.828 62.7843C28.4893 70.2591 35.6454 70.0515 38.7658 69.0133C41.1235 67.6983 46.2132 63.6563 47.711 58.0087C49.5832 50.9491 47.919 42.436 46.6708 40.3597C45.4227 38.2833 41.6782 35.9993 38.7658 38.2833C35.8534 40.5673 31.9009 39.3215 30.0287 39.3215C28.1564 39.3215 25.2441 40.3597 23.9959 44.3047Z" fill="#EE6A6F"/>
<path d="M50.3284 48.9828C33.6888 40.8294 21.3755 49.6484 19.8779 50.1475C21.2091 45.6549 25.6019 36.3367 32.524 35.0055C39.4461 33.6743 45.5029 36.0039 47.666 37.335C54.1 43.9354 63.64 55.5055 50.3284 48.9828Z" fill="#E62129"/>
<path d="M24.9499 79.8312L28.1707 67.1493L42.8656 65.9415L46.8916 79.8312C45.6838 81.2403 41.9396 84.2598 36.6253 85.065C31.311 85.8702 26.6274 81.9113 24.9499 79.8312Z" fill="#EE6A6F"/>
<path d="M36.2227 69.5649C33.324 69.8869 29.6469 68.0216 28.1707 67.1493L24.9499 79.4286L43.6708 68.7597L42.8656 65.9415C41.8591 67.0151 39.1214 69.2428 36.2227 69.5649Z" fill="#EA4F55"/>
<path d="M12.0661 84.6776C16.0921 80.9737 22.3324 79.2425 24.9493 78.8399C25.6874 80.9871 29.0721 84.7575 35.5137 84.5964C41.9552 84.4354 45.3855 80.8529 46.5262 78.8399C47.4656 78.8399 50.3132 79.2022 53.534 80.6516C56.7548 82.1009 61.7202 87.5629 63.8003 90.1127H7.23494C7.16784 89.8443 8.04014 88.3815 12.0661 84.6776Z" fill="#E62129"/>
<path d="M12.5563 56.1385C18.2138 50.6474 24.8696 45.1564 38.3477 45.6555C49.1301 46.0549 55.4864 50.481 58.8144 54.4745" stroke="#D3141C"/>
<path d="M35.5192 53.3093V59.9652" stroke="#DB171F" stroke-width="1.5"/>
</g>
</svg>

<svg width="500" height="500" viewBox="0 0 72 89" fill="none" xmlns="http://www.w3.org/2000/svg"><rect width="71.2" height="89" rx="4" fill="#DFE2E2"/><mask id="a" style="mask-type:alpha" maskUnits="userSpaceOnUse" x="0" y="0" width="72" height="90"><rect width="71.2" height="89" rx="4" fill="#44B090"/></mask><g mask="url(#a)"><path d="M27.365 60.222c-12.779-.266-16.861-5.213-17.305-7.654-.26-.832-.832-5.657 3.495-9.65 4.326-3.994 5.99-10.317 6.156-12.48.167-2.164 3.162-7.322 8.986-8.32 5.823-.999 18.137-.832 20.133 7.321 1.997 8.154 3.661 8.486 6.49 12.147 2.829 3.66 4.492 7.987 4.16 10.982-.333 2.995-3.827 5.325-7.654 6.656-3.828 1.331-8.487 1.331-24.46.998Z" fill="#E62129" stroke="#D3141C"/><path d="M23.996 44.305c-.999 3.156-2.219 4.914-2.704 5.398-.347 1.246-.125 5.606 3.536 13.081s10.817 7.268 13.938 6.23c2.358-1.316 7.447-5.358 8.945-11.005 1.872-7.06.208-15.573-1.04-17.65-1.248-2.076-4.993-4.36-7.905-2.076-2.913 2.284-6.865 1.038-8.737 1.038-1.873 0-4.785 1.039-6.033 4.984Z" fill="#EE6A6F"/><path d="M50.328 48.983c-16.64-8.154-28.953.665-30.45 1.165 1.331-4.493 5.724-13.811 12.646-15.143 6.922-1.33 12.979.999 15.142 2.33 6.434 6.6 15.974 18.17 2.662 11.648Z" fill="#E62129"/><path d="m24.95 79.831 3.22-12.682 14.696-1.207 4.026 13.89c-1.208 1.408-4.952 4.428-10.267 5.233-5.314.805-9.998-3.154-11.675-5.234Z" fill="#EE6A6F"/><path d="M36.223 69.565c-2.899.322-6.576-1.543-8.052-2.416L24.95 79.43l18.72-10.67-.804-2.817c-1.007 1.073-3.745 3.3-6.643 3.623Z" fill="#EA4F55"/><path d="M12.066 84.678c4.026-3.704 10.266-5.435 12.883-5.838.738 2.147 4.123 5.917 10.565 5.756 6.441-.16 9.871-3.743 11.012-5.756.94 0 3.787.362 7.008 1.812 3.22 1.449 8.186 6.91 10.266 9.46H7.235c-.067-.268.805-1.73 4.831-5.434Z" fill="#E62129"/><path d="M12.556 56.139c5.658-5.492 12.314-10.983 25.792-10.483 10.782.399 17.138 4.825 20.466 8.819" stroke="#D3141C"/><path d="M35.52 53.31v6.655" stroke="#DB171F" stroke-width="1.5"/></g></svg>
